X:472
T:Reel 472
M:4/4
K:Gmaj
L:1/8
d>ega b2ge|dege d2Bd|Gega g2ge|dega bagf|gage e2dB|dedB A2e2|G2ge g2bc'|d'bga g2 (3def |gabc' d'2d'2|e'd'd'e'  (3d'c'd' g2|gabc' d'2d'2|bd'd'2 e'2d'2|gabc' d'2d'2|e'd'd'e' d'2d'2|e'd'bg agab|ge (3ede d2d2|
